X:15
T: Sarah's Bliss
C: BB
L: 1/8
M: 9/8
Q: 330
R: slip jig
K: Amix
d|"A"edc "G"BcB "A"AEE|"A"edc "G"BAB "A"c2e|
"A"edc "G"BcB "A"AEE|"G"GAB "Em"dBG "A"A2 :|
e|"A"aec "G"Bcd "A"cAA|"A"aec Ace "Em"g2e|
"A"aga "Bm"baf "A"ecA|"G"GAB "Em"dBG "A"A2 :|

%%%%%%%%%%%%%%%%%%%%%%%%%%%%%%%%%%%%%%%%%%%%%

